packages/icons/src/star.svg

<svg width="24" height="24" viewBox="0 0 24 24" fill="none" xmlns="http://www.w3.org/2000/svg">
<path fill-rule="evenodd" clip-rule="evenodd" d="M12.0024 14.9339L15.1531 16.8395L14.3186 13.2587L17.1075 10.8422L13.4394 10.5308L11.9993 7.13242L10.5601 10.5209L6.89313 10.8322L9.68201 13.2487L8.84617 16.8352L12.0024 14.9339ZM17.6403 18.7C17.8403 19.56 16.9103 20.24 16.1503 19.78L12.0003 17.27L7.85032 19.77C7.09032 20.23 6.16032 19.55 6.36032 18.69L7.46032 13.97L3.79032 10.79C3.12032 10.21 3.48032 9.11001 4.36032 9.04001L9.19032 8.63001L11.0803 4.18001C11.4203 3.37001 12.5803 3.37001 12.9203 4.18001L14.8103 8.64001L19.6403 9.05001C20.5203 9.12001 20.8803 10.22 20.2103 10.8L16.5403 13.98L17.6403 18.7Z" fill="black"/>
</svg>

<svg xmlns="http://www.w3.org/2000/svg" width="24" height="24" fill="none" viewBox="0 0 24 24">
  <path fill="#000" fill-rule="evenodd" d="m12.002 14.934 3.151 1.906-.834-3.581 2.789-2.417-3.669-.311L12 7.132l-1.439 3.389-3.667.311 2.789 2.417-.836 3.586 3.156-1.901ZM17.64 18.7c.2.86-.73 1.54-1.49 1.08L12 17.27l-4.15 2.5c-.76.46-1.69-.22-1.49-1.08l1.1-4.72-3.67-3.18c-.67-.58-.31-1.68.57-1.75l4.83-.41 1.89-4.45c.34-.81 1.5-.81 1.84 0l1.89 4.46 4.83.41c.88.07 1.24 1.17.57 1.75l-3.67 3.18 1.1 4.72Z" clip-rule="evenodd"/>
</svg>
